X:1
T:I’ll Stand by Until the Morning
T:I’ll Stand by Until the Morning
T:James McGranahan
T:Daniel Webster Whittle, 1878
T:Public Domain Courtesy of the Cyber Hymnal™
T:Public Domain Courtesy of the Cyber Hymnal™
C:James McGranahan
Z:Public Domain
Z:Courtesy of the Cyber Hymnal™
%%score ( 1 2 ) ( 3 4 )
L:1/8
Q:1/4=113
M:4/4
K:Eb
V:1 treble 
V:2 treble 
V:3 bass 
V:4 bass 
V:1
 [GB]3 [^F=A] [GB]>[FA] [GB]>[FA] | [GB]4 [EG]4 | [Ec]3 [EB] [DA]2 [EG]2 | [DF]8 | %4
w: 1.~Fierce and wild the storm is|rag- ing|Round a help- less|bark,|
w: 2.~Wear- y, help- less hope- less|sea- men|Faint- ing on the|deck,|
w: 3.~On a wild and storm- y|o- cean,|Sink- ing ’neath the|wave,|
w: 4.~Dar- ing death thy soul to|res- cue,|He in love has|come,|
 [FA]3 [=EG] [FA]>[EG] [FA]>[EG] | [FA]4 [DF]4 | [Bd]3 [Ac] [GB]2 [FA]2 | [EG]6 z2 || %8
w: On to doom ’tis swift- ly|driv- ing,|O’er the wa- ters|dark!|
w: With what joy they hail their|Sav- ior,|As He hails their|wreck!|
w: Souls that per- ish heed the|mes- sage,|Christ has come to|save!|
w: Leave the wreck and in Him|trust- ing,|Thou shalt reach thy|home!|
"^Refrain" B4- (3(BG)A (3(B{f'}c)d | e4 ([GB]2 G2) | c4- (3(cA)c (3(ed)c | B6 z2 | %12
w: ||||
w: Joy, * * be- hold * the|Sav- ior, *|Joy, * * the mes- * sage|hear,|
w: ||||
w: ||||
 [Ge]2 [Be]2 [Ae]>[Ae] [Ad]>[Ac] | [EB]4 [EG]2 [GB]2 | [Ad]3 [Ac] [GB]>[FA] [EG]>[DF] | %15
w: |||
w: “I’ll stand by un- til the|morn- ing, I’ve|come to save you, do not|
w: |||
w: |||
 ([EG]4 [GB]2) (3(Bcd) | [Ge]2 [Be]2 [Ae]>[Ae] [Ad]>[Ac] | [GB]4 [EG]2 [GB]2 | %18
w: |||
w: fear. * Yes, * *|I’ll stand by un- til the|morn- ing, I’ve|
w: |||
w: |||
 [Ad]3 [Ac] [GB]>[FA] [EG]>[DF] | E8 |] %20
w: ||
w: come to save you, do not|fear.”|
w: ||
w: ||
V:2
 x8 | x8 | x8 | x8 | x8 | x8 | x8 | x8 || (G2 G2 G2) G2 | (G2 G2) x4 | (A2 A2 A2) A2 | %11
 (G2 G2 G2) x2 | x8 | x8 | x8 | x8 | x8 | x8 | x8 | (E2 B,>C B,4) |] %20
V:3
 [E,B,]3 [E,C] [E,B,]>[E,C] [E,B,]>[E,C] | [E,B,]4 [E,B,]4 | A,3 [G,B,] [F,B,]2 [E,B,]2 | %3
w: ~ ~ ~ ~ ~ ~|~ ~|~ ~ ~ ~|
 [B,,B,]8 | [B,,B,]3 [B,,B,] [B,,B,]>[B,,B,] [B,,B,]>[B,,B,] | [B,,B,]4 [B,,B,]4 | %6
w: ~|~ ~ ~ ~ ~ ~|~ ~|
 [B,,B,]3 [B,,B,] [B,,B,]2 [B,,B,]2 | [E,B,]6 z2 || [E,E]2 [E,E]2 [E,E]2 [E,E]2 | %9
w: ~ ~ ~ ~|~|Joy, O joy, be-|
 [E,B,]2 [E,B,]2 [E,B,]2 [E,B,]2 | [A,,E]2 [A,,E]2 [A,,E]2 [A,,E]2 | [E,E]2 [E,E]2 [E,E]2 z2 | %12
w: hold the Sav- ior,|Joy, O joy, the|mes- sage hear,|
 [E,B,]2 [_D,G,]2 [C,A,]>[C,A,] [A,,A,]>[A,,A,] | [E,G,]4 [E,B,]2 [E,B,]2 | %14
w: ~ ~ ~ ~ ~ ~|~ ~ ~|
 [B,,B,]3 [B,,B,] [B,,B,]>[B,,B,] [B,,B,]>[B,,B,] | [E,B,]6 z2 | %16
w: ~ ~ ~ ~ ~ ~|~|
 [E,B,]2 [G,_D]2 [A,C]>[A,C] [A,,A,C]>[A,,A,E] | [E,E]4 [E,B,]2 [E,B,]2 | %18
w: ~ ~ ~ ~ ~ ~|~ ~ ~|
 [B,,B,]3 [B,,B,] [B,,B,]>[B,,B,] [B,,B,]>[B,,A,] | G,2 G,>A, G,4 |] %20
w: ~ ~ ~ ~ ~ ~|~ do not fear.|
V:4
 x8 | x8 | A,3 x5 | x8 | x8 | x8 | x8 | x8 || x8 | x8 | x8 | x8 | x8 | x8 | x8 | x8 | x8 | x8 | %18
 x8 | E,8 |] %20

